!! 00025] TT[TB
!! Zh. Ch. M-2523, NN), MZ 2305)
!!!OTL: Lishui chuangong haozi  1. 1: Pingban; 2: Shuban; 3: Kuaiban
!!!ARE: Asia, China,ÿHunan, Jinshi, Lixian
!! Ethnic Group: Han
!! I, 549
!!!SCT: C0131A
!!!YEM: Copyright 1995, estate of Helmut Schaffrath.
**kern
*ICvox
*Ivox
*M2/4
*k[b-]
*F:
{16a
16ff
8dd
8dd
8cc
=1
8a
16dd
16cc
4a}
=2
{4.dd
8cc
=3
16a
16cc
8a
4cc}
=4
{4.dd
8cc
=5
16a
16cc
8a
4cc}
=6
{4cc
8a
8g
=7
4g
4a}
=8
{8cc
16a
16dd
8cc
16cc
16a
=9
8g
24a
24g
24a
4f}
=10
{4.g
8f
=11
16d
16f
8d
4f}
==
!!!AGN: Haozi, Chuangong haozi. Pingshui xingchuan shi chang
!! I: Yao Meizo hu he; II: di chang; III: gao chiang
!!    Zu diesen Themen gibt es viele Melodien.
!!    Vereinzelt Verzierungen.
!!!ONB: ESAC (Essen Associative Code) Database: CHINA
!!!AMT: simple duple
!!!AIN: vox
!!!EED: Helmut Schaffrath
!!!EEV: 1.0
*-
